icons/source/generic/documentation.svg

<?xml version="1.0" encoding="utf-8"?>
<!-- Generated by IcoMoon.io -->
<!DOCTYPE svg PUBLIC "-//W3C//DTD SVG 1.1//EN" "http://www.w3.org/Graphics/SVG/1.1/DTD/svg11.dtd">
<svg version="1.1" xmlns="http://www.w3.org/2000/svg" xmlns:xlink="http://www.w3.org/1999/xlink" width="32" height="32" viewBox="0 0 32 32">
<path d="M13.869 12h11.999v2h-11.999v-2zM13.869 16h11.999v1.999h-11.999v-1.999zM13.869 19.999h11.999v2h-11.999v-2zM13.869 23.999h7.999v2h-7.999v-2zM29.867 6h-6v-4c0-1.1-0.9-2-2-2h-20c-1.1 0-2 0.9-2 2v22c0 1.1 0.9 2 2 2h6v4c0 1.101 0.901 2 2 2h19.999c1.101 0 2-0.899 2-2v-22c0.001-1.1-0.898-2-1.999-2zM7.868 8v15h-5v-20h18v3h-11c-1.099 0-2 0.9-2 2zM28.868 29h-18v-20h18v20z"></path>
</svg>

<svg xmlns="http://www.w3.org/2000/svg" width="32" height="32" viewBox="0 0 32 32"><path d="M13.869 12h11.999v2H13.869v-2zm0 4h11.999v1.999H13.869V16zm0 3.999h11.999v2H13.869v-2zm0 4h7.999v2h-7.999v-2zM29.867 6h-6V2c0-1.1-.9-2-2-2h-20c-1.1 0-2 .9-2 2v22c0 1.1.9 2 2 2h6v4c0 1.101.901 2 2 2h19.999c1.101 0 2-.899 2-2V8c.001-1.1-.898-2-1.999-2zM7.868 8v15h-5V3h18v3h-11c-1.099 0-2 .9-2 2zm21 21h-18V9h18v20z"/></svg>
